!!!!SEGMENT: pl-kk--kk-i-268--002_anonim-sancta-et-immaculata.krn
!!!id: 16xx:790
!!!COM: Anonim
!!!OTL: Sancta et immaculata
!!!PDT:
!!!SMS-siglum: PL-Kk
!!!SMS-shelfmark: Kk.I.268
!!!NIFC-rismID: 1001143717
!!!URL-scan: http://repozytorium.nifc.pl/skany/pl-kk-nut--i-268
!!!ONB-nifc: UWAGA: utwory w zbiorze: 1. Rorate caeli, 2. Sancta et immaculata
!!!SMS-variant:
!!!SMS-altvar:
**kern	**text	**kern	**text
*part2	*part2	*part1	*part1
*staff2	*staff2	*staff1	*staff1
*I"Baſſo.	*	*I"Tenore Secundo.	*
*I'B.	*	*I'T. II	*
*clefF4	*	*clefC4	*
*k[b-]	*	*k[b-]	*
*F:	*	*F:	*
*M2/2	*	*M2/2	*
*met(c|)	*	*met(c|)	*
=1	=1	=1	=1
!	!	!LO:TX:t=P:problem:litera S wielka, przed kluczem na początku pięciolinii	!
0r	.	1F/	San-
=2	=2	=2	=2
.	.	2F/	-cta
.	.	2G/	et
=3	=3	=3	=3
1r	.	2A/	I(m)-
!	!	!LO:SIC:o:t:v=każda synkopa zapisana jako przekreślona cała nuta	!
.	.	1c\	-ma-
=4	=4	=4-	=4
!LO:TX:t=P:problem:litera S wielka, przed kluczem na początku pięciolinii	!	!	!
1C/	San-	.	.
*	*	*2\right	*
.	.	2B-\	-cu-
=5	=5	=5	=5
2C/	-cta	1A\	-la-
2D/	et	.	.
=6	=6	=6	=6
*2\right	*	*	*
2E\	Im-	2G/	-ta
!LO:SIC:o:t:v=każda synkopa zapisana jako przekreślona cała nuta	!	!	!
1F\	-ma-	2A/	Vir-
=7-	=7	=7	=7
.	.	2c\	-gi-
2E\	-cu-	2B-\	-ni-
=8	=8	=8	=8
1D\	-la-	1c\	-tas
=9	=9	=9	=9
2C/	-ta	1r	.
2D/	Vir-	.	.
=10	=10	=10	=10
!	!	!LO:TX:t=P:problem:brak jednego taktu	!
2.BB-/	-gi-	1ryy	.
4BB-/	-ni-	.	.
=11	=11	=11	=11
1FF/	-tas	1C/	Sanc-
=12	=12	=12	=12
0r	.	2C/	-ta
.	.	2C/	et
=13	=13	=13	=13
.	.	2D/	Im-
!	!	!LO:LB:g=original	!
.	.	1F/	-ma-
=14	=14	=14-	=14
1r	.	.	.
.	.	2E/	-cu-
=15	=15	=15	=15
1FF/	San-	2.F/	-la-
.	.	4E/	.
=16	=16	=16	=16
2FF/	-cta	1D/	.
2GG/	et	.	.
!LO:LB:g=original	!	!	!
=17	=17	=17	=17
2AA/	im-	2C/	-ta
1BB-/	-ma-	2F/	Vir-
=18-	=18	=18	=18
.	.	4G/	.
.	.	4F/	.
2AA/	-cu-	1F/	-gi-
=19	=19	=19-	=19
1GG/	-la-	.	.
.	.	2E/	-ni-
=20	=20	=20	=20
2FF/	-ta	1F/	-tas
2F\	Vir-	.	.
=21	=21	=21	=21
2D\	-gi-	2r	.
2E\	-ni-	2G/	qui-
=22	=22	=22	=22
1F\	-tas	2c\	-bus
.	.	2c\	te
=23	=23	=23	=23
2r	.	2B-\	lau-
2FF/	qui-	2A\	-di-
=24	=24	=24	=24
2C/	-bus	2G/	-bus
2C/	te	4F/	.
.	.	4E/	.
!	!	!LO:LB:g=original	!
=25	=25	=25	=25
2.BB-/	lau-	2F/	ef-
.	.	4.D/	-fe-
4BB-/	-di-	.	.
.	.	8E/	.
=26	=26	=26	=26
2AA/	-bus	4F/	.
.	.	4E/	.
2.FF/	ef-	4F/	.
.	.	4G/	.
=27	=27	=27	=27
.	.	2A/	-ram
4FF/	-fe-	.	.
*	*	*	*ij
2GG/	-ram	2D/	ef-
=28	=28	=28	=28
!LO:TX:t=P:problem:ligatura c.o.p.	!	!	!
*lig	*	*	*
1D\	nes-	2F/	.
.	.	1F/	-fe-
=29	=29	=29	=29
!LO:TX:t=P:problem:nuty zaczernione: color minor	!	!	!
2.C/	.	.	.
.	.	2E/	.
4C/	-ci-	.	.
*Xlig	*	*	*
!LO:LB:g=original	!	!	!
=30	=30	=30	=30
1FF/	-o	1F/	-ram
*	*	*	*Xij
=31	=31	=31	=31
1F\	qui-	1A\	quem
=32	=32	=32	=32
2F\	-a	2A/	Ca(e)-
2F\	quem	2A/	-li
=33	=33	=33	=33
[y1BB-/	Ca(e)-	1B-\	Ca-
=34	=34	=34	=34
!LO:N:xstem:cue:vis=4	!	!	!
2BB-/]	.	1F/	.
2D/	-li	.	.
=35	=35	=35	=35
2.C/	ca-	1G/	-pe-
4D\	.	.	.
=36	=36	=36	=36
2E\	-pe-	2F/	-re
2F\	-re	2E/	.
!	!	!LO:LB:g=original	!
=37	=37	=37	=37
2C/	non	1F/	non
2FF/	.	.	.
=38	=38	=38	=38
2.BB-/	po-	[y1G/	po-
4AA/	-te-	.	.
=39	=39	=39	=39
!	!	!LO:N:xstem:cue:vis=4	!
2GG/	-rant	2G/]	.
2C/	tu-	2E/	-te-
=40	=40	=40	=40
2FF/	-o	1F/	-rant
1F\	gre-	.	.
=41-	=41	=41	=41
.	.	1r	.
2E/	-mi-	.	.
!LO:LB:g=original	!	!	!
=42	=42	=42	=42
2F\	-o	2r	.
2D\	con-	1F/	tu-
=43	=43	=43	=43
1C/	-tu-	.	.
.	.	2E/	-o
=44	=44	=44	=44
2.D/	-lis-	1F/	gre-
4D/	.	.	.
=45	=45	=45	=45
2BB-/	.	1G/	-mi-
2D/	.	.	.
=46	=46	=46	=46
1FF/	-ti	1A\	-o
=47	=47	=47	=47
1r	.	2r	.
.	.	1c\	tu-
=48	=48	=48	=48
2r	.	.	.
1F\	tu-	2B-\	-o
=49-	=49	=49	=49
.	.	2c\	gre-
2E/	-o	2G/	-mi-
=50	=50	=50	=50
[y1F\	gre-	1A\	-o
=51	=51	=51	=51
!LO:N:xstem:cue:vis=4	!	!	!
2F\]	.	1r	.
2G\	-mi-	.	.
=52	=52	=52	=52
1A\	-o	2r	.
.	.	1F/	tu-
=53	=53	=53	=53
2r	.	.	.
2C/	tu-	2E/	-o
!	!	!LO:LB:g=original	!
=54	=54	=54	=54
2AA/	-o	1F/	gre-
1BB-/	gre-	.	.
=55	=55	=55	=55
.	.	1G/	-mi-
2C/	-mi-	.	.
!LO:LB:g=original	!	!	!
=56	=56	=56	=56
2FF/	-o	2A/	-o
1F\	tu-	1c\	.
=57-	=57	=57	=57
.	.	.	.
2G\	-o	2B-\	con-
=58	=58	=58	=58
1C/	gre-	4c\	-tu-
.	.	8B-\L	-lis-
.	.	8A\J	.
.	.	4G/	.
.	.	4A/	.
=59	=59	=59	=59
2D/	.	4B-/	.
.	.	4G/	.
1BB-/	-mi-	2c\	-ti
=60	=60	=60	=60
.	.	2d\	con-
2AA/	-o	2c\	-tu-
=61	=61	=61	=61
2.BB-/	con-	2d\	-lis-
.	.	2c\	.
4C/	-tu-	.	.
=62	=62	=62	=62
2.D/	-lis-	2B-\	-ti
.	.	2r	.
4E\	.	.	.
=63	=63	=63	=63
1F\	-ti	2A/	tu-
.	.	2A/	-o
!	!	!LO:LB:g=original	!
=64	=64	=64	=64
[y1BB-/	con-	2F/	gre-
.	.	[y2B-\	.
=65	=65	=65	=65
!LO:N:xstem:cue:vis=4	!	!LO:N:xstem:cue:vis=4	!
2BB-/]	.	4B-\]	.
.	.	4B-\	-mi-
2GG/	-tu-	2B-\	-o
=66	=66	=66	=66
!	!	!LO:TX:t=P:problem:zmiany wysokości nut	!
2.AA/	.	2A/	con-
.	.	4G/	-tu-
4BB-/	.	4F/	.
=67	=67	=67	=67
0C/	-lis-	2E/	-lis-
.	.	2A/	.
=68-	=68	=68	=68
.	.	1G/	.
=69-	=69	=69	=69
0FF/;;	-ti.	0A\;;	-ti.
==	==	==	==
*-	*-	*-	*-
!!!system-decoration: [(s1,s2)]
!!!ENC: Mateusz Solarz
!!!END: 2021-02-17
!!!EED: Leszek Kubiak
!!!EST: 2021-03-02
